X:1
T:Paddy Fahy's Reel #1
C:Paddy Fahy
M:4/4
L:1/8
K:Ddor
|: "Dm"D2DE FEFG | "A7"Ad^c[eA] "Dm"d2de | "Dm"f2[gd]f "C"edcA | "Dm"dcAG "C"FDEC || "Dm"D2DE FEFG |
| "A7"Ad^cA "Dm"d2de | f2gf "C"edcA | dcAG "Dm"FDD2 :: "Dm"Ad~d2 ad~d2 | "C"~c2Gc EcGc | "Dm"Ad~d2 ad~d2 |
| "C"cBcd "Dm"ed~d2 || "Dm"~a2^ga "Am"ABcA | "Dm"dcAG "C"FDEC | "Dm"D2DE FEFG | "A7"Ad^cA "Dm"d4 :||
